X: 12153
T: Ewe, The
R: reel
M: 4/4
K: Gmajor
|:DG~G2 DGBG|=F2AF cFAF|DGG^F G2eg|^fdcA BGAF|
DG~G2 DGBG|=F2AF cFAF|DGG^F G2eg|^fdcA BG~G2:|
|:g2bg dgbg|f2af dfaf|g2bg dgbg|agfa ~g3a|
bgaf gfde|fdcA BGAF|Gggf gbag|fdcA ~G3z:|

